img/icon_phone.svg

<svg width="21" height="21" viewBox="0 0 21 21" fill="none" xmlns="http://www.w3.org/2000/svg">
<path fill-rule="evenodd" clip-rule="evenodd" d="M10.1554 0.0949707C4.63255 0.0949707 0.155396 4.56422 0.155396 10.0773C0.155396 15.5904 4.63255 20.0597 10.1554 20.0597C15.6782 20.0597 20.1554 15.5904 20.1554 10.0773C20.1554 4.56422 15.6782 0.0949707 10.1554 0.0949707ZM7.15029 5.08612C7.17989 5.10955 7.20336 5.10955 7.22683 5.10649C7.34826 5.0963 7.45234 5.12584 7.51969 5.23687C7.53157 5.2561 7.54345 5.27534 7.55534 5.29457C7.69458 5.51984 7.83407 5.74552 7.96663 5.97639C8.06259 6.14329 8.15414 6.31291 8.24578 6.48269C8.31297 6.60719 8.38022 6.73178 8.4493 6.85547C8.47604 6.9056 8.50945 6.95282 8.54286 7.00005C8.56173 7.02671 8.5806 7.05338 8.59828 7.08058C8.64087 7.14822 8.68162 7.21769 8.72141 7.28551L8.72787 7.29653C8.81359 7.45849 8.80951 7.62147 8.68195 7.75084C8.54768 7.88788 8.40337 8.01769 8.25933 8.14726C8.20852 8.19297 8.15774 8.23864 8.10745 8.2846C8.04493 8.34188 7.98148 8.39824 7.91806 8.45457C7.81796 8.54349 7.71793 8.63235 7.62173 8.72464C7.49928 8.8428 7.46765 8.9905 7.5503 9.14635C7.55795 9.16065 7.5656 9.17495 7.57325 9.18925C7.69308 9.41329 7.81277 9.63706 7.94418 9.85633C8.46256 10.7191 9.12482 11.4525 9.96157 12.0179C10.284 12.2369 10.6197 12.4375 10.9585 12.629C11.2779 12.8093 11.4024 12.7788 11.6504 12.5027C11.7813 12.3575 11.9097 12.211 12.0382 12.0643C12.1359 11.9527 12.2338 11.8409 12.333 11.7296C12.3881 11.6674 12.4545 11.6124 12.5188 11.5595C12.6494 11.4495 12.7922 11.4372 12.9422 11.5126C12.9516 11.5172 12.9612 11.5217 12.9708 11.5262C13.0038 11.5416 13.0372 11.5573 13.0657 11.5778C13.3318 11.7678 13.6189 11.9205 13.9056 12.073C14.0477 12.1486 14.1897 12.2241 14.329 12.3041C14.4726 12.3865 14.6137 12.4726 14.7545 12.5584C14.8348 12.6074 14.9149 12.6563 14.9953 12.7044C15.1147 12.7747 15.1627 12.8776 15.1545 13.0192C15.1321 13.4174 15.0657 13.8086 14.8341 14.1447C14.7372 14.2843 14.5994 14.4065 14.4606 14.5053C14.0759 14.7742 13.6463 14.9403 13.1892 15.0421C12.7739 15.1348 12.3596 15.1012 11.9616 14.977C11.1932 14.7406 10.4361 14.4697 9.73911 14.0592C9.10645 13.6853 8.53093 13.2341 7.99827 12.7299C7.32377 12.0892 6.72171 11.3904 6.23497 10.5948C5.91762 10.0784 5.69108 9.52222 5.48598 8.95485C5.36149 8.61259 5.23904 8.27339 5.18393 7.91076C5.12067 7.50026 5.16455 7.10503 5.29618 6.71592C5.41455 6.36449 5.56251 6.02834 5.78598 5.72785C5.9615 5.49459 6.18089 5.32346 6.46457 5.24706C6.62485 5.20473 6.78615 5.16846 6.94739 5.1322C7.01506 5.11699 7.08272 5.10178 7.15029 5.08612Z" fill="white"/>
</svg>

<svg width="21" height="21" fill="none" xmlns="http://www.w3.org/2000/svg"><path fill-rule="evenodd" clip-rule="evenodd" d="M10.155.095c-5.522 0-10 4.47-10 9.982 0 5.513 4.478 9.983 10 9.983 5.523 0 10-4.47 10-9.983 0-5.513-4.477-9.982-10-9.982zM7.15 5.086a.09.09 0 00.077.02c.121-.01.225.02.293.13l.035.059c.14.225.28.45.412.681.096.167.187.337.279.507.067.124.134.249.203.372.027.05.06.098.094.145.019.027.038.053.055.08.043.068.084.138.123.206l.007.01c.086.162.082.325-.046.455a8.832 8.832 0 01-.423.396l-.152.138-.189.17c-.1.088-.2.177-.296.27-.123.118-.154.266-.072.421l.023.043c.12.224.24.448.371.667.519.863 1.18 1.597 2.018 2.162.322.219.658.42.997.611.319.18.443.15.691-.126.131-.146.26-.292.388-.439l.295-.334a1.62 1.62 0 01.186-.17.36.36 0 01.423-.047l.029.013a.588.588 0 01.095.052c.266.19.553.343.84.495.142.076.284.151.423.231.144.082.285.169.425.254.08.05.16.098.241.146.12.07.168.174.16.315-.023.398-.09.79-.32 1.126-.098.14-.236.261-.374.36a3.52 3.52 0 01-1.272.537c-.415.093-.83.06-1.227-.065-.769-.236-1.526-.507-2.223-.918A9.767 9.767 0 018 12.73c-.675-.64-1.277-1.339-1.764-2.134-.317-.517-.544-1.073-.749-1.64-.125-.342-.247-.682-.302-1.044-.063-.41-.02-.806.112-1.195.119-.352.267-.688.49-.988a1.24 1.24 0 01.679-.48c.16-.043.321-.08.482-.116l.203-.046z" fill="#fff"/></svg>
